X: 1
T: Little Katie Taylor
M: 4/4
L: 1/8
R: reel
K: Dmaj
|: D2 FD GEFE | (3DDD FA d2 ef | geaf f-ged | cA (3AAA EFGE |
D2 FD GEFE | (3DDD FA dfef | geaf edcd |1 ed (3ddc dBAF :|2 edce d3 g ||
|: fdfa (3ggg ag | fdfa (3ggg ag | fd=cA BG (3GGG | ABcA dcAg |
fdfa (3ggg ag | fdfa (3ggg ag | fd=cA BG (3GGG |1 ABcA [d3DA3] g :|2 ABcA dBAF ||
